X: 24649
T: Macedonian Oro
R: reel
M: 4/4
K: Amajor
|:"D"eff fedA|"A"dee edcA|"G"cdd dedc|"A"c2A cdeA|
"D"eff fedA|"A"dee edcA|"G"cdd dedc|"A"c2A c4:|
|:"C#m"cef g2g2|gaa gfe2|cef g2g2|gaa g4|
"D"efg gagf|"A"e2d cdeA|"D"e2d dedc|"A"c2A cdeA|
"D"efg gagf|"A"e2d cdeA|"D"e2d dedc|"A"c2A c4:|

